X: 15783
T: Good Ship Planet
R: jig
M: 6/8
K: Gmajor
E/F/|:G>AF G>EF|GAB d>Bd|efe d>BA|GF{A}G B2 F|
~G3 {A}G>EF|G>AB dBd|efe dBG|1 {ABc}A>GG G2 E/F/:|2 {AB}AGG G2 G/A/||
|:B>cB gag|fed e>dA|B>AG {A}GFE|{F}E>FG/A/ B2 E/F/|
GAF GEF|G>AB dBd|e>fe dBG|1 A>GG G2 G/A/:|2 A>G{A}G G3||

